!!!OTL: Die Koenigskinder Es waren zwei Koenigeskinder,
!!!ARE: Europa, Mitteleuropa, Deutschland (), Thueringen
!!!YOR: 1, S. 219
!!    1840 aufgezeichnet
!!!SCT: Q0020M
!!!YEM: Copyright 1995, estate of Helmut Schaffrath.
**kern
*ICvox
*Ivox
*M3/8
*k[f#]
*G:
{8d
=1
8.g
16d
8g
=2
8.b
16g
8b
=3
4.dd
=4
4a}
{8a
=5
8.b
16cc
8dd
=6
8.dd
16cc
8b
=7
4a
8r
=8
4r}
{8dd
=9
8.dd
16dd
16dd
16dd
=10
8.dd
16b
8g
=11
8.cc
16dd
8ee
=12
4dd}
{8cc
=13
8.b
16b
8b
=14
8.a
16b
8a
=15
4g}
==
!!!AGN: Ballade, Liebe, Trennung, Tod
!!!ONB: ESAC (Essen Associative Code) Database: BALLADE
!!!AMT: simple triple
!!!AIN: vox
!!!EED: Helmut Schaffrath
!!!EEV: 1.0
*-
